X: 9
T: The Fermoy Lasses
R: reel
M: 4/4
L: 1/8
K: Emin
A|(GE)E2 (BE)E2|GEGA B2(BA)|(GE)E2 (BE)E2|(FD)(AG)A2AF|
(GE)E2 (BE)E2|(GE)(GA) (BcBA)|GABc d2dB|AFDF A2z||A|
G2BG d2BA|G2Bd efg2|G2BG d2cB|AFDF AcBA|
G2BG d2BA|G2Bd efg2|gage dedB|AFDF A2z |]


Tune 219	Setting 25482

